X:1
T:Title
%%score { 1 | ( 2 3 ) }
L:1/8
M:4/4
K:Db
V:1 treble nm="Grand Piano"
V:2 bass 
V:3 bass 
V:1
 z4 z2[Q:1/4=100] [DF][EG] | [FA]2 [Fd]2 [Fd]2 [GB]2 | [FA]>[GB] [FA]>[DF] [FA]2 [GB]A | %3
 [CEG]2 [B,EG]2 [CEG]2 [A,CA]2 |[M:9/8] [A,DF]>[A,CE][A,DF]- [A,DF]/[A,EG]/ [FA]2- [FA] [FA]2 | %5
[M:4/4] B>=A B>c d2 B2 | [FA]>[GB] [FA]>[DF] [FA]2 [FA][FA] | B3 B c3 A |[M:3/4] [Fd]6 | %9
[M:1/4] [FA][FA] |[M:4/4] B3 =A B3 A | B2 d4 cB | [FA]3 [GB] [FA]3 [A,DF] | [CEA]6 FE | %14
 D D2 F [FA] [FA]2 [FA] | [GB][Bd][Ac][GB] [FA]2 [Ad]d | d3 d e2 [Gc]2 |[M:3/4] [Fd]6 |] %18
V:2
 z4 z2 [D,A,]2 | [D,D]2 [D,A,]2 [D,A,]2 [D,D]2 | [D,D]>[D,D] [D,D]>[D,A,] [D,D]2 z F | %3
 A,,2 A,,2 A,,2 A,,2 |[M:9/8] D,>D,D,- D,/D,/ [D,D]2- [D,D] [D,D]2 | %5
[M:4/4] [G,DG]>[G,CG] [G,DG]>[G,=A,G] [G,B,G]2 [G,DG]2 | %6
 [D,D]>[D,D] [D,D]>[D,A,] [D,D]2 [D,D][D,D] | [G,DG]3 [G,EG] [A,EG]3 [A,G] | %8
[M:3/4][K:bass] [D,A,]6 |[M:1/4] [D,D][D,D] |[M:4/4] [G,DG]3 [G,CG] [G,DG]3 [G,CG] | D2 z2 z4 | %12
 [D,D]3 [D,D] [D,D]3 D, | A,,6 F,E, | D, D,2 [D,A,D] [D,D] [D,D]2 [D,D] | %15
 [G,D][G,D][G,D][G,D] [D,D]2 [F,A,][K:treble][G,B,G] | [A,F]3 [A,DF] [A,CG]2[K:bass] [A,,A,]2 | %17
[M:3/4] [D,A,]6 |] %18
V:3
 x8 | x8 | z4 z2 [D,D]2 | x8 |[M:9/8] x9 |[M:4/4] x8 | x8 | x8 |[M:3/4][K:bass] x6 |[M:1/4] x2 | %10
[M:4/4] x8 | [G,G]2- [G,B,G]4 [G,DG][G,DG] | x8 | x8 | x8 | x7[K:treble] x | x6[K:bass] x2 | %17
[M:3/4] x6 |] %18

